images/客户详情/u1545.svg

﻿<?xml version="1.0" encoding="utf-8"?>
<svg version="1.1" xmlns:xlink="http://www.w3.org/1999/xlink" width="64px" height="46px" xmlns="http://www.w3.org/2000/svg">
  <g transform="matrix(1 0 0 1 -469 -255 )">
    <path d="M 42.3393333333333 15.0484257703081  C 41.3961904761904 13.743731092437  39.8831428571429 13.7523070028011  38.9461904761905 15.0484257703081  L 24.4657142857143 35.079825210084  L 17.4611428571428 25.2745725490195  C 16.5331428571429 23.9755630252101  15.0286666666667 23.9756593837535  14.1006666666666 25.2745725490195  L 1.18780952380951 43.3508571428571  C 0.259809523809537 44.6498666666666  0.813523809523844 45.702969187675  2.42447619047624 46  L 61.5865714285715 46  C 63.1984761904762 45.702969187675  63.7398095238095 44.6521792717086  62.802761904762 43.3559641456583  L 42.3393333333333 15.0484257703081  Z M 21.0988941176471 6.01087999999999  C 21.0988941176471 2.70178037139817  18.4268175758247 0.0192250980392146  15.1306441176471 0.0192250980392146  C 11.8344706594694 0.0192250980392146  9.16239411764704 2.70178037139817  9.16239411764704 6.01087999999999  C 9.16239411764704 9.31997962860186  11.8344706594694 12.0025349019608  15.1306441176471 12.0025349019608  C 18.4268175758247 12.0025349019608  21.0988941176471 9.31997962860186  21.0988941176471 6.01087999999999  Z " fill-rule="nonzero" fill="#748aa1" stroke="none" transform="matrix(1 0 0 1 469 255 )" />
  </g>
</svg>

<svg xmlns="http://www.w3.org/2000/svg" width="64" height="46"><path fill="#748aa1" d="M42.34 15.048c-.944-1.304-2.457-1.296-3.394 0L24.466 35.08l-7.005-9.805c-.928-1.3-2.432-1.3-3.36 0L1.188 43.35C.26 44.65.814 45.703 2.424 46h59.163c1.611-.297 2.153-1.348 1.216-2.644zM21.098 6.011c0-3.31-2.672-5.992-5.968-5.992-3.297 0-5.969 2.683-5.969 5.992s2.672 5.992 5.969 5.992c3.296 0 5.968-2.683 5.968-5.992"/></svg>
